; generated by Slic3r 1.3.0 on 2019-07-13 at 00:28:34

; external perimeters extrusion width = 0.44mm (0.84mm^3/s)
; perimeters extrusion width = 0.56mm (2.69mm^3/s)
; infill extrusion width = 0.50mm (2.87mm^3/s)
; solid infill extrusion width = 0.56mm (1.08mm^3/s)
; top infill extrusion width = 0.56mm (0.81mm^3/s)

M107
M190 S62 ; set bed temperature and wait for it to be reached
M104 S215 ; set temperature
G28 ; home all axes
G1 Z5 F5000 ; lift nozzle

; Filament gcode

M109 S215 ; set temperature and wait for it to be reached
G21 ; set units to millimeters
G90 ; use absolute coordinates
M82 ; use absolute distances for extrusion
G92 E0
G1 Z0.300 F6000.000
G1 E-2.00000 F2400.00000
G92 E0
G1 X88.959 Y94.353 F6000.000
G1 E2.00000 F2400.00000
G1 F1800
G1 X89.564 Y93.813 E2.05541
G1 X91.060 Y92.605 E2.18687
G1 X91.513 Y92.263 E2.22568
G1 X92.615 Y91.517 E2.31666
G1 X94.240 Y90.541 E2.44625
G1 X94.948 Y90.162 E2.50110
G1 X96.750 Y89.309 E2.63740
G1 X119.387 Y78.910 E4.34032
G1 X120.497 Y78.495 E4.42131
G1 X121.564 Y78.252 E4.49611
G1 X122.894 Y78.143 E4.58734
G1 X128.220 Y78.149 E4.95146
G1 X129.349 Y78.219 E5.02875
G1 X130.745 Y78.470 E5.12570
G1 X131.015 Y78.544 E5.14485
G1 X132.419 Y79.067 E5.24729
G1 X132.562 Y79.137 E5.25817
G1 X134.104 Y80.106 E5.38263
G1 X134.266 Y80.235 E5.39685
G1 X135.983 Y82.113 E5.57078
G1 X136.735 Y83.541 E5.68106
G1 X136.819 Y83.749 E5.69640
G1 X137.416 Y86.809 E5.90951
G1 X137.416 Y124.809 E8.50715
G1 X137.233 Y126.527 E8.62525
G1 X136.345 Y128.911 E8.79919
G1 X135.548 Y130.077 E8.89573
G1 X135.380 Y130.281 E8.91381
G1 X133.123 Y132.189 E9.11585
G1 X132.696 Y132.420 E9.14905
G1 X120.351 Y138.652 E10.09437
G1 X118.466 Y139.558 E10.23734
G1 X117.209 Y140.077 E10.33029
G1 X116.676 Y140.267 E10.36895
G1 X114.884 Y140.835 E10.49745
G1 X114.114 Y141.038 E10.55189
G1 X112.258 Y141.431 E10.68156
G1 X111.463 Y141.559 E10.73662
G1 X109.548 Y141.771 E10.86837
G1 X108.973 Y141.814 E10.90776
G1 X107.612 Y141.848 E11.00080
G1 X105.741 Y141.791 E11.12881
G1 X104.945 Y141.727 E11.18334
G1 X103.070 Y141.485 E11.31259
G1 X102.280 Y141.342 E11.36750
G1 X100.405 Y140.909 E11.49906
G1 X99.852 Y140.760 E11.53819
G1 X98.560 Y140.344 E11.63096
G1 X96.809 Y139.670 E11.75922
G1 X96.075 Y139.345 E11.81406
G1 X94.388 Y138.497 E11.94319
G1 X93.688 Y138.101 E11.99818
G1 X92.063 Y137.072 E12.12965
G1 X90.966 Y136.289 E12.22178
G1 X90.524 Y135.940 E12.26029
G1 X89.084 Y134.718 E12.38934
G1 X88.497 Y134.168 E12.44435
G1 X87.183 Y132.808 E12.57361
G1 X86.650 Y132.199 E12.62894
G1 X85.458 Y130.690 E12.76040
G1 X84.680 Y129.584 E12.85282
G1 X84.378 Y129.108 E12.89134
G1 X83.421 Y127.473 E13.02089
G1 X83.050 Y126.761 E13.07577
G1 X82.258 Y125.038 E13.20542
G1 X81.955 Y124.281 E13.26110
G1 X81.330 Y122.462 E13.39263
G1 X81.121 Y121.748 E13.44344
G1 X80.743 Y120.201 E13.55232
G1 X80.601 Y119.480 E13.60256
G1 X80.318 Y117.601 E13.73243
G1 X80.238 Y116.799 E13.78757
G1 X80.142 Y114.887 E13.91844
G1 X80.137 Y114.195 E13.96575
G1 X80.183 Y112.866 E14.05663
G1 X80.235 Y112.186 E14.10322
G1 X80.459 Y110.313 E14.23220
G1 X80.592 Y109.525 E14.28685
G1 X81.003 Y107.659 E14.41746
G1 X81.145 Y107.108 E14.45633
G1 X81.547 Y105.814 E14.54893
G1 X82.202 Y104.054 E14.67733
G1 X82.519 Y103.316 E14.73223
G1 X83.349 Y101.619 E14.86136
G1 X83.738 Y100.914 E14.91640
G1 X84.749 Y99.279 E15.04786
G1 X85.065 Y98.806 E15.08670
G1 X85.863 Y97.730 E15.17829
G1 X87.070 Y96.276 E15.30747
G1 X87.613 Y95.683 E15.36247
G1 X88.917 Y94.396 E15.48769
G1 X89.336 Y94.735 F6000.000
G1 F1800
G1 X89.900 Y94.230 E15.53946
G1 X91.396 Y93.021 E15.67091
G1 X91.820 Y92.703 E15.70717
G1 X92.891 Y91.976 E15.79563
G1 X94.516 Y91.000 E15.92522
G1 X95.177 Y90.646 E15.97646
G1 X96.973 Y89.796 E16.11233
G1 X119.611 Y79.397 E17.81525
G1 X120.647 Y79.009 E17.89091
G1 X121.651 Y78.780 E17.96128
G1 X122.894 Y78.678 E18.04652
G1 X128.220 Y78.685 E18.41058
G1 X129.300 Y78.753 E18.48461
G1 X130.604 Y78.987 E18.57519
G1 X130.875 Y79.061 E18.59433
G1 X132.186 Y79.550 E18.69003
G1 X132.330 Y79.619 E18.70092
G1 X133.770 Y80.524 E18.81719
G1 X133.932 Y80.654 E18.83141
G1 X135.581 Y82.478 E18.99948
G1 X136.238 Y83.742 E19.09688
G1 X136.323 Y83.950 E19.11222
G1 X136.880 Y86.809 E19.31131
G1 X136.880 Y124.809 E21.90895
G1 X136.708 Y126.421 E22.01976
G1 X135.838 Y128.720 E22.18784
G1 X135.134 Y129.737 E22.27240
G1 X134.966 Y129.942 E22.29047
G1 X132.853 Y131.726 E22.47952
G1 X132.454 Y131.942 E22.51054
G1 X120.109 Y138.174 E23.45585
G1 X118.234 Y139.075 E23.59809
G1 X117.739 Y139.292 E23.63502
G1 X116.514 Y139.756 E23.72456
G1 X114.722 Y140.324 E23.85306
G1 X114.003 Y140.514 E23.90392
G1 X112.147 Y140.907 E24.03360
G1 X111.404 Y141.027 E24.08503
G1 X109.489 Y141.239 E24.21678
G1 X108.952 Y141.279 E24.25358
G1 X107.629 Y141.312 E24.34405
G1 X105.757 Y141.255 E24.47207
G1 X105.014 Y141.196 E24.52301
G1 X103.139 Y140.953 E24.65227
G1 X102.400 Y140.821 E24.70356
G1 X100.525 Y140.387 E24.83512
G1 X100.009 Y140.248 E24.87167
G1 X98.753 Y139.844 E24.96190
G1 X97.001 Y139.170 E25.09016
G1 X96.316 Y138.867 E25.14139
G1 X94.628 Y138.019 E25.27052
G1 X93.974 Y137.648 E25.32190
G1 X92.349 Y136.619 E25.45336
G1 X91.283 Y135.858 E25.54294
G1 X90.870 Y135.531 E25.57891
G1 X89.431 Y134.310 E25.70796
G1 X88.883 Y133.796 E25.75935
G1 X87.568 Y132.436 E25.88862
G1 X87.071 Y131.866 E25.94031
G1 X85.878 Y130.358 E26.07176
G1 X85.122 Y129.283 E26.16162
G1 X84.841 Y128.838 E26.19761
G1 X83.883 Y127.202 E26.32715
G1 X83.537 Y126.537 E26.37843
G1 X82.744 Y124.814 E26.50808
G1 X82.462 Y124.107 E26.56010
G1 X81.836 Y122.288 E26.69163
G1 X81.641 Y121.621 E26.73909
G1 X81.263 Y120.074 E26.84798
G1 X81.130 Y119.400 E26.89491
G1 X80.848 Y117.522 E27.02478
G1 X80.773 Y116.772 E27.07629
G1 X80.677 Y114.860 E27.20716
G1 X80.672 Y114.213 E27.25136
G1 X80.718 Y112.885 E27.34224
G1 X80.767 Y112.250 E27.38577
G1 X80.990 Y110.376 E27.51474
G1 X81.115 Y109.640 E27.56580
G1 X81.526 Y107.774 E27.69641
G1 X81.659 Y107.259 E27.73272
G1 X82.049 Y106.001 E27.82278
G1 X82.704 Y104.241 E27.95117
G1 X83.000 Y103.551 E28.00246
G1 X83.830 Y101.855 E28.13159
G1 X84.193 Y101.196 E28.18302
G1 X85.205 Y99.560 E28.31447
G1 X85.499 Y99.119 E28.35076
G1 X86.275 Y98.072 E28.43982
G1 X87.482 Y96.618 E28.56900
G1 X87.990 Y96.064 E28.62038
G1 X89.293 Y94.777 E28.74560
G1 X89.712 Y95.116 F6000.000
G1 F1800
G1 X90.237 Y94.647 E28.79372
G1 X91.733 Y93.438 E28.92518
G1 X92.127 Y93.142 E28.95888
G1 X93.167 Y92.435 E29.04482
G1 X94.792 Y91.459 E29.17441
G1 X95.406 Y91.130 E29.22204
G1 X97.197 Y90.283 E29.35748
G1 X119.834 Y79.884 E31.06040
G1 X120.798 Y79.523 E31.13074
G1 X121.739 Y79.309 E31.19669
G1 X122.894 Y79.214 E31.27592
G1 X128.219 Y79.221 E31.63993
G1 X129.252 Y79.286 E31.71070
G1 X130.464 Y79.504 E31.79490
G1 X130.735 Y79.577 E31.81404
G1 X131.954 Y80.032 E31.90301
G1 X132.097 Y80.101 E31.91389
G1 X133.436 Y80.943 E32.02197
G1 X133.598 Y81.073 E32.03619
G1 X135.177 Y82.840 E32.19820
G1 X135.742 Y83.943 E32.28291
G1 X135.826 Y84.151 E32.29826
G1 X136.344 Y86.809 E32.48333
G1 X136.344 Y124.809 E35.08097
G1 X136.183 Y126.314 E35.18449
G1 X134.720 Y129.397 E35.41778
G1 X134.552 Y129.602 E35.43586
G1 X132.584 Y131.263 E35.61191
G1 X119.868 Y137.696 E36.58605
G1 X118.002 Y138.593 E36.72755
G1 X117.542 Y138.794 E36.76188
G1 X116.352 Y139.245 E36.84888
G1 X114.560 Y139.813 E36.97738
G1 X113.892 Y139.990 E37.02466
G1 X112.036 Y140.384 E37.15433
G1 X111.345 Y140.495 E37.20215
G1 X109.430 Y140.706 E37.33389
G1 X108.931 Y140.744 E37.36810
G1 X107.645 Y140.777 E37.45602
G1 X105.773 Y140.720 E37.58404
G1 X105.083 Y140.665 E37.63139
G1 X103.208 Y140.422 E37.76065
G1 X102.521 Y140.299 E37.80833
G1 X100.646 Y139.865 E37.93989
G1 X100.166 Y139.736 E37.97387
G1 X98.945 Y139.344 E38.06154
G1 X97.194 Y138.670 E38.18981
G1 X96.556 Y138.388 E38.23743
G1 X94.869 Y137.540 E38.36656
G1 X94.261 Y137.196 E38.41432
G1 X92.636 Y136.167 E38.54579
G1 X91.601 Y135.426 E38.63280
G1 X91.217 Y135.123 E38.66624
G1 X89.778 Y133.901 E38.79529
G1 X89.268 Y133.423 E38.84306
G1 X87.954 Y132.064 E38.97233
G1 X87.491 Y131.534 E39.02038
G1 X86.299 Y130.026 E39.15184
G1 X85.564 Y128.981 E39.23914
G1 X85.303 Y128.567 E39.27259
G1 X84.345 Y126.932 E39.40213
G1 X84.023 Y126.313 E39.44979
G1 X83.231 Y124.590 E39.57945
G1 X82.968 Y123.933 E39.62780
G1 X82.343 Y122.114 E39.75933
G1 X82.161 Y121.494 E39.80345
G1 X81.783 Y119.947 E39.91234
G1 X81.660 Y119.321 E39.95597
G1 X81.378 Y117.442 E40.08583
G1 X81.308 Y116.745 E40.13372
G1 X81.212 Y114.833 E40.26459
G1 X81.207 Y114.232 E40.30568
G1 X81.254 Y112.903 E40.39656
G1 X81.299 Y112.313 E40.43702
G1 X81.522 Y110.440 E40.56599
G1 X81.638 Y109.755 E40.61346
G1 X82.049 Y107.889 E40.74406
G1 X82.395 Y106.654 E40.83173
G1 X82.551 Y106.188 E40.86533
G1 X83.206 Y104.428 E40.99373
G1 X83.481 Y103.787 E41.04141
G1 X84.311 Y102.090 E41.17054
G1 X84.649 Y101.478 E41.21834
G1 X85.660 Y99.842 E41.34980
G1 X85.934 Y99.432 E41.38353
G1 X86.687 Y98.414 E41.47006
G1 X87.894 Y96.960 E41.59924
G1 X88.366 Y96.445 E41.64700
G1 X89.669 Y95.158 E41.77222
G1 X90.089 Y95.497 F6000.000
G1 F1800
G1 X90.574 Y95.063 E41.81670
G1 X92.069 Y93.855 E41.94816
G1 X92.434 Y93.581 E41.97931
G1 X93.443 Y92.895 E42.06272
G1 X95.068 Y91.918 E42.19231
G1 X95.636 Y91.614 E42.23634
G1 X97.421 Y90.769 E42.37134
G1 X120.058 Y80.370 E44.07426
G1 X120.949 Y80.037 E44.13927
G1 X121.826 Y79.837 E44.20080
G1 X122.894 Y79.749 E44.27403
G1 X128.218 Y79.756 E44.63798
G1 X129.204 Y79.820 E44.70550
G1 X130.324 Y80.021 E44.78332
G1 X130.594 Y80.094 E44.80246
G1 X131.721 Y80.515 E44.88469
G1 X131.865 Y80.584 E44.89557
G1 X133.102 Y81.362 E44.99547
G1 X133.264 Y81.491 E45.00968
G1 X135.245 Y84.145 E45.23604
G1 X135.330 Y84.353 E45.25138
G1 X135.809 Y86.809 E45.42243
G1 X135.809 Y124.809 E48.02007
G1 X135.658 Y126.208 E48.11630
G1 X134.306 Y129.058 E48.33192
G1 X134.138 Y129.262 E48.35000
G1 X132.314 Y130.800 E48.51306
G1 X119.627 Y137.218 E49.48502
G1 X117.771 Y138.110 E49.62578
G1 X117.345 Y138.295 E49.65751
G1 X116.190 Y138.735 E49.74197
G1 X114.399 Y139.303 E49.87047
G1 X113.781 Y139.466 E49.91417
G1 X111.925 Y139.860 E50.04384
G1 X111.287 Y139.962 E50.08803
G1 X109.371 Y140.174 E50.21978
G1 X108.910 Y140.209 E50.25139
G1 X107.661 Y140.242 E50.33676
G1 X105.790 Y140.184 E50.46477
G1 X105.151 Y140.134 E50.50854
G1 X103.276 Y139.891 E50.63780
G1 X102.642 Y139.777 E50.68186
G1 X100.767 Y139.343 E50.81343
G1 X100.323 Y139.224 E50.84483
G1 X99.137 Y138.844 E50.92996
G1 X97.386 Y138.170 E51.05822
G1 X96.797 Y137.910 E51.10224
G1 X95.109 Y137.061 E51.23136
G1 X94.547 Y136.743 E51.27551
G1 X92.923 Y135.714 E51.40697
G1 X91.918 Y134.995 E51.49144
G1 X91.564 Y134.714 E51.52234
G1 X90.124 Y133.493 E51.65139
G1 X89.653 Y133.051 E51.69555
G1 X88.339 Y131.691 E51.82481
G1 X87.911 Y131.202 E51.86922
G1 X86.719 Y129.694 E52.00068
G1 X86.007 Y128.679 E52.08541
G1 X85.765 Y128.297 E52.11634
G1 X84.808 Y126.661 E52.24588
G1 X84.510 Y126.090 E52.28993
G1 X83.718 Y124.366 E52.41958
G1 X83.475 Y123.759 E52.46427
G1 X82.850 Y121.940 E52.59580
G1 X82.682 Y121.367 E52.63658
G1 X82.304 Y119.820 E52.74547
G1 X82.190 Y119.241 E52.78580
G1 X81.907 Y117.362 E52.91566
G1 X81.843 Y116.718 E52.95992
G1 X81.747 Y114.806 E53.09079
G1 X81.743 Y114.251 E53.12877
G1 X81.789 Y112.922 E53.21965
G1 X81.831 Y112.377 E53.25704
G1 X82.054 Y110.503 E53.38602
G1 X82.161 Y109.870 E53.42988
G1 X82.572 Y108.004 E53.56049
G1 X82.909 Y106.806 E53.64560
G1 X83.053 Y106.375 E53.67666
G1 X83.708 Y104.614 E53.80505
G1 X83.962 Y104.022 E53.84912
G1 X84.792 Y102.325 E53.97825
G1 X85.104 Y101.759 E54.02243
G1 X86.116 Y100.124 E54.15389
G1 X86.369 Y99.745 E54.18506
G1 X87.099 Y98.756 E54.26907
G1 X88.306 Y97.302 E54.39825
G1 X88.743 Y96.826 E54.44239
G1 X90.046 Y95.539 E54.56761
G1 E52.56761 F2400.00000
G92 E0
G1 X122.379 Y122.719 F6000.000
G1 E2.00000 F2400.00000
G1 F1800
G1 X121.102 Y124.545 E2.15228
G1 X120.069 Y125.809 E2.26384
G1 X118.908 Y126.977 E2.37646
G1 X117.650 Y128.016 E2.48799
G1 X115.838 Y129.301 E2.63985
G1 X114.265 Y126.013 E2.88896
G1 X113.277 Y126.543 E2.96558
G1 X111.974 Y127.084 E3.06203
G1 X110.927 Y127.401 E3.13681
G1 X112.196 Y130.821 E3.38619
G1 X110.003 Y131.209 E3.53847
G1 X108.379 Y131.372 E3.65003
G1 X106.731 Y131.377 E3.76265
G1 X105.107 Y131.222 E3.87418
G1 X102.917 Y130.849 E4.02604
G1 X104.129 Y127.412 E4.27515
G1 X103.056 Y127.089 E4.35177
G1 X101.761 Y126.552 E4.44762
G1 X100.788 Y126.033 E4.52300
G1 X99.267 Y129.349 E4.77240
G1 X97.442 Y128.072 E4.92468
G1 X96.178 Y127.040 E5.03624
G1 X95.010 Y125.878 E5.14886
G1 X93.971 Y124.620 E5.26039
G1 X92.686 Y122.808 E5.41225
G1 X95.973 Y121.235 E5.66136
G1 X95.442 Y120.243 E5.73829
G1 X94.898 Y118.931 E5.83535
G1 X94.586 Y117.897 E5.90921
G1 X91.166 Y119.166 E6.15861
G1 X90.778 Y116.973 E6.31088
G1 X90.615 Y115.349 E6.42244
G1 X90.610 Y113.702 E6.53507
G1 X90.764 Y112.080 E6.64643
G1 X91.152 Y109.893 E6.79828
G1 X94.574 Y111.100 E7.04633
G1 X94.898 Y110.026 E7.12296
G1 X95.441 Y108.715 E7.22002
G1 X95.954 Y107.758 E7.29418
G1 X92.638 Y106.238 E7.54358
G1 X93.914 Y104.412 E7.69585
G1 X94.947 Y103.148 E7.80741
G1 X96.109 Y101.980 E7.92004
G1 X97.364 Y100.942 E8.03140
G1 X99.186 Y99.670 E8.18325
G1 X100.752 Y102.944 E8.43130
G1 X101.740 Y102.414 E8.50792
G1 X103.043 Y101.873 E8.60437
G1 X104.090 Y101.556 E8.67915
G1 X102.820 Y98.136 E8.92853
G1 X105.014 Y97.748 E9.08081
G1 X106.638 Y97.585 E9.19237
G1 X108.285 Y97.580 E9.30499
G1 X109.909 Y97.734 E9.41652
G1 X112.099 Y98.108 E9.56838
G1 X110.887 Y101.545 E9.81749
G1 X111.973 Y101.873 E9.89503
G1 X113.276 Y102.413 E9.99149
G1 X114.228 Y102.924 E10.06532
G1 X115.753 Y99.610 E10.31465
G1 X117.575 Y100.885 E10.46663
G1 X118.838 Y101.917 E10.57820
G1 X120.006 Y103.079 E10.69082
G1 X121.046 Y104.337 E10.80235
G1 X122.330 Y106.149 E10.95421
G1 X119.043 Y107.722 E11.20332
G1 X119.575 Y108.714 E11.28025
G1 X120.118 Y110.026 E11.37731
G1 X120.430 Y111.060 E11.45119
G1 X123.615 Y109.879 E11.68336
G1 X124.038 Y112.838 E11.88766
G1 X124.116 Y114.459 E11.99864
G1 X124.102 Y115.192 E12.04876
G1 X123.961 Y116.762 E12.15651
G1 X123.597 Y118.969 E12.30938
G1 X120.442 Y117.857 E12.53801
G1 X120.118 Y118.931 E12.61467
G1 X119.575 Y120.242 E12.71173
G1 X119.063 Y121.199 E12.78589
G1 X122.324 Y122.694 E13.03118
G1 X121.572 Y122.939 F6000.000
G1 F1800
G1 X120.675 Y124.221 E13.13819
G1 X119.671 Y125.449 E13.24660
G1 X118.546 Y126.580 E13.35565
G1 X117.324 Y127.591 E13.46403
G1 X116.046 Y128.496 E13.57109
G1 X114.476 Y125.214 E13.81985
G1 X114.111 Y125.488 E13.85102
G1 X113.047 Y126.059 E13.93358
G1 X111.793 Y126.579 E14.02639
G1 X110.633 Y126.930 E14.10921
G1 X110.204 Y126.992 E14.13890
G1 X111.471 Y130.405 E14.38776
G1 X109.929 Y130.678 E14.49477
G1 X108.351 Y130.837 E14.60318
G1 X106.756 Y130.841 E14.71223
G1 X105.177 Y130.691 E14.82061
G1 X103.634 Y130.428 E14.92767
G1 X104.844 Y126.996 E15.17643
G1 X104.393 Y126.932 E15.20759
G1 X103.236 Y126.583 E15.29016
G1 X101.990 Y126.068 E15.38238
G1 X100.906 Y125.488 E15.46638
G1 X100.566 Y125.232 E15.49548
G1 X99.048 Y128.542 E15.74439
G1 X97.765 Y127.645 E15.85140
G1 X96.537 Y126.641 E15.95981
G1 X95.406 Y125.517 E16.06886
G1 X94.396 Y124.294 E16.17724
G1 X93.491 Y123.017 E16.28430
G1 X96.773 Y121.446 E16.53306
G1 X96.499 Y121.082 E16.56423
G1 X95.926 Y120.013 E16.64708
G1 X95.403 Y118.751 E16.74049
G1 X95.054 Y117.595 E16.82306
G1 X94.995 Y117.174 E16.85212
G1 X91.581 Y118.441 E17.10102
G1 X91.309 Y116.899 E17.20803
G1 X91.150 Y115.321 E17.31644
G1 X91.146 Y113.726 E17.42549
G1 X91.295 Y112.149 E17.53378
G1 X91.568 Y110.607 E17.64082
G1 X94.991 Y111.814 E17.88894
G1 X95.054 Y111.363 E17.92010
G1 X95.403 Y110.207 E18.00267
G1 X95.926 Y108.944 E18.09608
G1 X96.499 Y107.876 E18.17893
G1 X96.754 Y107.536 E18.20800
G1 X93.445 Y106.018 E18.45690
G1 X94.342 Y104.736 E18.56391
G1 X95.345 Y103.508 E18.67232
G1 X96.470 Y102.376 E18.78137
G1 X97.691 Y101.367 E18.88966
G1 X98.974 Y100.469 E18.99670
G1 X100.541 Y103.743 E19.24482
G1 X100.905 Y103.469 E19.27598
G1 X101.969 Y102.898 E19.35855
G1 X103.224 Y102.378 E19.45136
G1 X104.383 Y102.027 E19.53417
G1 X104.813 Y101.965 E19.56386
