; generated by Slic3r 1.3.0 on 2019-07-20 at 22:25:56

; external perimeters extrusion width = 0.44mm (6.35mm^3/s)
; perimeters extrusion width = 0.56mm (6.20mm^3/s)
; infill extrusion width = 0.50mm (11.88mm^3/s)
; solid infill extrusion width = 0.56mm (5.17mm^3/s)
; top infill extrusion width = 0.56mm (8.27mm^3/s)

M107
M190 S62 ; set bed temperature and wait for it to be reached
M104 S215 ; set temperature
G28 ; home all axes
G1 Z5 F5000 ; lift nozzle

; Filament gcode

M109 S215 ; set temperature and wait for it to be reached
G21 ; set units to millimeters
G90 ; use absolute coordinates
M82 ; use absolute distances for extrusion
G92 E0
G1 Z0.200 F10200.000
G1 E-2.00000 F3000.00000
G92 E0
G1 Z0.800 F10200.000
G1 X77.304 Y104.568 F10200.000
G1 Z0.200 F10200.000
G1 E2.00000 F3000.00000
M201 X800 Y800
M204 P800 T800
G1 F1800
G1 X77.759 Y104.256 E2.01676
G1 X78.269 Y103.956 E2.03474
G1 X78.793 Y103.696 E2.05250
G1 X79.335 Y103.473 E2.07030
G1 X79.888 Y103.290 E2.08800
G1 X80.422 Y103.152 E2.10476
G1 X81.071 Y103.034 E2.12480
G1 X81.756 Y102.964 E2.14570
G1 X111.065 Y101.152 E3.03789
G1 X111.852 Y101.118 E3.06181
G1 X112.520 Y101.108 E3.08212
G1 X113.468 Y101.124 E3.11090
G1 X114.428 Y101.177 E3.14013
G1 X115.311 Y101.259 E3.16708
G1 X116.278 Y101.386 E3.19670
G1 X117.078 Y101.519 E3.22135
G1 X118.643 Y101.859 E3.27000
G1 X119.522 Y102.097 E3.29767
G1 X120.400 Y102.368 E3.32557
G1 X121.256 Y102.668 E3.35314
G1 X122.079 Y102.990 E3.38000
G1 X122.974 Y103.378 E3.40962
G1 X123.599 Y103.676 E3.43064
G1 X124.302 Y104.036 E3.45464
G1 X125.184 Y104.528 E3.48534
G1 X126.009 Y105.032 E3.51471
G1 X126.735 Y105.512 E3.54117
G1 X127.470 Y106.037 E3.56859
G1 X128.237 Y106.630 E3.59806
G1 X128.864 Y107.152 E3.62285
G1 X129.501 Y107.719 E3.64875
G1 X130.133 Y108.322 E3.67529
G1 X130.774 Y108.979 E3.70317
G1 X131.380 Y109.647 E3.73057
G1 X132.024 Y110.413 E3.76096
G1 X132.593 Y111.146 E3.78917
G1 X133.089 Y111.835 E3.81496
G1 X133.697 Y112.751 E3.84836
G1 X134.167 Y113.528 E3.87596
G1 X134.416 Y113.984 E3.89172
G1 X134.650 Y114.494 E3.90879
G1 X134.864 Y115.066 E3.92733
G1 X135.037 Y115.671 E3.94646
G1 X135.157 Y116.264 E3.96485
G1 X135.238 Y116.957 E3.98605
G1 X135.256 Y117.546 E4.00395
G1 X135.230 Y118.148 E4.02225
G1 X135.149 Y118.782 E4.04165
G1 X135.030 Y119.358 E4.05954
G1 X134.774 Y120.191 E4.08600
G1 X134.569 Y120.693 E4.10249
G1 X134.312 Y121.215 E4.12015
G1 X133.953 Y121.834 E4.14191
G1 X133.466 Y122.608 E4.16969
G1 X133.000 Y123.294 E4.19487
G1 X132.546 Y123.917 E4.21830
G1 X131.606 Y125.092 E4.26401
G1 X130.615 Y126.188 E4.30891
G1 X130.078 Y126.732 E4.33215
G1 X129.462 Y127.318 E4.35797
G1 X128.373 Y128.260 E4.40170
G1 X127.186 Y129.170 E4.44715
G1 X125.980 Y129.987 E4.49140
G1 X124.709 Y130.742 E4.53633
G1 X123.528 Y131.359 E4.57679
G1 X122.292 Y131.922 E4.61807
G1 X120.841 Y132.482 E4.66531
G1 X119.462 Y132.921 E4.70930
G1 X118.129 Y133.264 E4.75111
G1 X117.303 Y133.438 E4.77677
G1 X116.501 Y133.580 E4.80150
G1 X115.743 Y133.689 E4.82478
G1 X114.852 Y133.788 E4.85200
G1 X114.055 Y133.848 E4.87628
G1 X113.213 Y133.884 E4.90189
G1 X112.391 Y133.892 E4.92685
G1 X111.554 Y133.872 E4.95231
G1 X81.754 Y132.036 E5.85938
G1 X81.032 Y131.960 E5.88146
G1 X80.263 Y131.811 E5.90526
G1 X79.659 Y131.640 E5.92433
G1 X79.192 Y131.472 E5.93941
G1 X78.794 Y131.304 E5.95253
G1 X78.267 Y131.043 E5.97040
G1 X77.759 Y130.744 E5.98829
G1 X77.300 Y130.429 E6.00522
G1 X76.786 Y130.017 E6.02523
G1 X76.381 Y129.639 E6.04207
G1 X75.961 Y129.189 E6.06076
G1 X75.528 Y128.641 E6.08199
G1 X75.181 Y128.121 E6.10099
G1 X74.870 Y127.568 E6.12027
G1 X74.618 Y127.032 E6.13825
G1 X74.305 Y126.167 E6.16618
G1 X74.164 Y125.646 E6.18259
G1 X74.049 Y125.067 E6.20054
G1 X73.980 Y124.546 E6.21649
G1 X73.934 Y123.652 E6.24370
G1 X73.934 Y111.348 E6.61750
G1 X73.965 Y110.615 E6.63980
G1 X74.052 Y109.912 E6.66131
G1 X74.158 Y109.381 E6.67777
G1 X74.261 Y108.983 E6.69026
G1 X74.478 Y108.319 E6.71147
G1 X74.812 Y107.546 E6.73708
G1 X75.163 Y106.907 E6.75921
G1 X75.620 Y106.236 E6.78388
G1 X75.939 Y105.838 E6.79939
G1 X76.255 Y105.489 E6.81368
G1 X76.786 Y104.983 E6.83597
G1 X77.256 Y104.604 E6.85432
M201 X1000 Y1000
M204 P1000 T1000
G1 X77.518 Y104.854 F10200.000
M201 X800 Y800
M204 P800 T800
G1 F1800
G1 X77.954 Y104.555 E6.87037
G1 X78.442 Y104.268 E6.88757
G1 X78.944 Y104.020 E6.90457
G1 X79.462 Y103.807 E6.92160
G1 X79.991 Y103.632 E6.93852
G1 X80.504 Y103.500 E6.95461
G1 X81.124 Y103.387 E6.97376
G1 X81.778 Y103.320 E6.99373
G1 X111.087 Y101.509 E7.88591
G1 X111.862 Y101.475 E7.90948
G1 X112.518 Y101.465 E7.92942
G1 X113.453 Y101.480 E7.95780
G1 X114.399 Y101.533 E7.98661
G1 X115.274 Y101.614 E8.01329
G1 X116.226 Y101.739 E8.04247
G1 X117.015 Y101.871 E8.06679
G1 X118.554 Y102.205 E8.11463
G1 X119.421 Y102.439 E8.14191
G1 X120.285 Y102.707 E8.16939
G1 X121.131 Y103.003 E8.19663
G1 X121.945 Y103.321 E8.22316
G1 X122.827 Y103.704 E8.25239
G1 X123.441 Y103.996 E8.27303
G1 X124.132 Y104.350 E8.29664
G1 X125.002 Y104.835 E8.32688
G1 X125.816 Y105.333 E8.35589
G1 X126.534 Y105.807 E8.38201
G1 X127.258 Y106.325 E8.40905
G1 X127.920 Y106.834 E8.43442
G1 X128.600 Y107.396 E8.46125
G1 X129.213 Y107.939 E8.48611
G1 X129.811 Y108.506 E8.51115
G1 X130.450 Y109.156 E8.53885
G1 X131.068 Y109.833 E8.56670
G1 X131.515 Y110.356 E8.58762
G1 X132.076 Y111.056 E8.61485
G1 X132.620 Y111.788 E8.64257
G1 X133.131 Y112.533 E8.67000
G1 X133.678 Y113.402 E8.70122
G1 X134.020 Y113.996 E8.72203
G1 X134.322 Y114.634 E8.74347
G1 X134.524 Y115.176 E8.76107
G1 X134.690 Y115.755 E8.77934
G1 X134.805 Y116.323 E8.79694
G1 X134.882 Y116.981 E8.81709
G1 X134.899 Y117.546 E8.83427
G1 X134.874 Y118.118 E8.85167
G1 X134.797 Y118.724 E8.87020
G1 X134.683 Y119.274 E8.88728
G1 X134.439 Y120.069 E8.91253
G1 X134.243 Y120.547 E8.92823
G1 X133.999 Y121.043 E8.94502
G1 X133.648 Y121.648 E8.96628
G1 X133.166 Y122.414 E8.99377
G1 X132.709 Y123.086 E9.01846
G1 X132.260 Y123.703 E9.04166
G1 X131.335 Y124.859 E9.08664
G1 X130.357 Y125.940 E9.13092
G1 X129.828 Y126.477 E9.15383
G1 X129.219 Y127.055 E9.17934
G1 X128.146 Y127.984 E9.22247
G1 X126.977 Y128.881 E9.26722
G1 X125.788 Y129.686 E9.31085
G1 X124.535 Y130.431 E9.35514
G1 X123.373 Y131.037 E9.39496
G1 X122.154 Y131.592 E9.43564
G1 X120.722 Y132.145 E9.48229
G1 X119.365 Y132.577 E9.52554
G1 X117.987 Y132.930 E9.56877
G1 X116.443 Y133.227 E9.61653
G1 X115.699 Y133.335 E9.63939
G1 X114.822 Y133.432 E9.66620
G1 X114.033 Y133.492 E9.69023
G1 X113.205 Y133.527 E9.71541
G1 X112.396 Y133.535 E9.73999
G1 X111.567 Y133.515 E9.76516
G1 X81.776 Y131.680 E10.67198
G1 X81.087 Y131.607 E10.69306
G1 X80.345 Y131.463 E10.71602
G1 X79.767 Y131.299 E10.73426
G1 X78.944 Y130.980 E10.76108
G1 X78.440 Y130.730 E10.77817
G1 X77.954 Y130.445 E10.79530
G1 X77.514 Y130.143 E10.81151
G1 X77.023 Y129.750 E10.83061
G1 X76.635 Y129.388 E10.84674
G1 X76.234 Y128.958 E10.86460
G1 X75.815 Y128.428 E10.88512
G1 X75.483 Y127.931 E10.90329
G1 X75.186 Y127.402 E10.92171
G1 X74.945 Y126.889 E10.93893
G1 X74.647 Y126.067 E10.96550
G1 X74.512 Y125.567 E10.98123
G1 X74.402 Y125.012 E10.99841
G1 X74.336 Y124.513 E11.01372
G1 X74.291 Y123.652 E11.03992
G1 X74.291 Y111.348 E11.41373
G1 X74.321 Y110.648 E11.43502
G1 X74.405 Y109.968 E11.45584
G1 X74.603 Y109.083 E11.48338
G1 X74.814 Y108.441 E11.50391
G1 X75.132 Y107.704 E11.52830
G1 X75.467 Y107.095 E11.54941
G1 X75.907 Y106.449 E11.57317
G1 X76.213 Y106.067 E11.58805
G1 X76.510 Y105.738 E11.60150
G1 X77.023 Y105.250 E11.62303
G1 X77.470 Y104.890 E11.64047
M201 X1000 Y1000
M204 P1000 T1000
G1 X77.732 Y105.140 F10200.000
M201 X800 Y800
M204 P800 T800
G1 F1800
G1 X78.149 Y104.855 E11.65581
G1 X78.615 Y104.581 E11.67223
G1 X79.094 Y104.344 E11.68846
G1 X79.589 Y104.141 E11.70472
G1 X80.093 Y103.974 E11.72085
G1 X80.585 Y103.848 E11.73628
G1 X81.176 Y103.740 E11.75454
G1 X81.800 Y103.676 E11.77358
G1 X111.109 Y101.865 E12.66576
G1 X111.873 Y101.832 E12.68897
G1 X113.438 Y101.837 E12.73652
G1 X114.370 Y101.889 E12.76490
G1 X115.236 Y101.969 E12.79132
G1 X115.995 Y102.066 E12.81457
G1 X116.870 Y102.208 E12.84150
G1 X118.391 Y102.533 E12.88875
G1 X119.233 Y102.757 E12.91521
G1 X120.080 Y103.015 E12.94214
G1 X120.771 Y103.252 E12.96430
G1 X121.574 Y103.556 E12.99040
G1 X122.284 Y103.853 E13.01379
G1 X123.169 Y104.260 E13.04339
G1 X123.928 Y104.645 E13.06923
G1 X124.741 Y105.096 E13.09747
G1 X125.528 Y105.573 E13.12546
G1 X126.216 Y106.023 E13.15041
G1 X126.814 Y106.442 E13.17262
G1 X127.516 Y106.969 E13.19926
G1 X128.205 Y107.528 E13.22622
G1 X128.903 Y108.139 E13.25442
G1 X129.562 Y108.762 E13.28198
G1 X130.192 Y109.403 E13.30928
G1 X130.801 Y110.070 E13.33672
G1 X131.240 Y110.583 E13.35722
G1 X131.793 Y111.274 E13.38411
G1 X132.328 Y111.994 E13.41137
G1 X132.832 Y112.728 E13.43842
G1 X133.371 Y113.583 E13.46912
G1 X133.705 Y114.165 E13.48950
G1 X133.993 Y114.774 E13.50997
G1 X134.185 Y115.287 E13.52662
G1 X134.342 Y115.838 E13.54404
G1 X134.452 Y116.381 E13.56086
G1 X134.525 Y117.005 E13.57994
G1 X134.542 Y117.546 E13.59640
G1 X134.518 Y118.089 E13.61290
G1 X134.445 Y118.666 E13.63057
G1 X134.336 Y119.190 E13.64683
G1 X134.172 Y119.750 E13.66457
G1 X134.011 Y120.183 E13.67862
G1 X133.850 Y120.547 E13.69068
G1 X133.636 Y120.962 E13.70488
G1 X133.256 Y121.605 E13.72758
G1 X132.823 Y122.286 E13.75208
G1 X131.947 Y123.525 E13.79818
G1 X131.064 Y124.627 E13.84108
G1 X130.005 Y125.791 E13.88889
G1 X128.977 Y126.793 E13.93253
G1 X127.918 Y127.709 E13.97505
G1 X126.767 Y128.591 E14.01911
G1 X125.595 Y129.385 E14.06212
G1 X124.360 Y130.119 E14.10577
G1 X123.217 Y130.716 E14.14495
G1 X122.017 Y131.263 E14.18503
G1 X120.603 Y131.809 E14.23108
G1 X119.269 Y132.234 E14.27360
G1 X117.910 Y132.581 E14.31622
G1 X116.386 Y132.875 E14.36337
G1 X115.654 Y132.980 E14.38583
G1 X114.791 Y133.076 E14.41221
G1 X114.011 Y133.135 E14.43600
G1 X113.197 Y133.170 E14.46075
G1 X112.400 Y133.178 E14.48495
G1 X111.581 Y133.158 E14.50984
G1 X81.799 Y131.324 E15.41640
G1 X81.141 Y131.255 E15.43648
G1 X80.426 Y131.115 E15.45861
G1 X79.875 Y130.959 E15.47601
G1 X79.094 Y130.656 E15.50146
G1 X78.613 Y130.418 E15.51778
G1 X78.149 Y130.145 E15.53413
G1 X77.728 Y129.857 E15.54962
G1 X77.260 Y129.483 E15.56783
G1 X76.889 Y129.138 E15.58324
G1 X76.506 Y128.727 E15.60028
G1 X76.102 Y128.216 E15.62009
G1 X75.786 Y127.741 E15.63742
G1 X75.503 Y127.237 E15.65498
G1 X75.273 Y126.747 E15.67143
G1 X74.990 Y125.966 E15.69665
G1 X74.861 Y125.488 E15.71171
G1 X74.755 Y124.958 E15.72812
G1 X74.691 Y124.480 E15.74278
G1 X74.648 Y123.652 E15.76798
G1 X74.648 Y111.348 E16.14178
G1 X74.676 Y110.681 E16.16207
G1 X74.744 Y110.110 E16.17953
G1 X74.855 Y109.536 E16.19732
G1 X75.097 Y108.708 E16.22350
G1 X75.365 Y108.046 E16.24520
G1 X75.770 Y107.283 E16.27145
G1 X76.193 Y106.661 E16.29431
G1 X76.487 Y106.296 E16.30854
G1 X76.765 Y105.988 E16.32116
G1 X77.260 Y105.517 E16.34192
G1 X77.684 Y105.176 E16.35845
M201 X1000 Y1000
M204 P1000 T1000
G1 X77.946 Y105.426 F10200.000
M201 X800 Y800
M204 P800 T800
G1 F1800
G1 X78.344 Y105.154 E16.37308
G1 X78.788 Y104.893 E16.38872
G1 X79.244 Y104.668 E16.40419
G1 X79.716 Y104.475 E16.41967
G1 X80.246 Y104.301 E16.43662
G1 X80.666 Y104.195 E16.44979
G1 X81.229 Y104.093 E16.46716
G1 X81.822 Y104.033 E16.48527
G1 X111.856 Y102.190 E17.39949
G1 X112.514 Y102.179 E17.41948
G1 X113.423 Y102.194 E17.44708
G1 X114.341 Y102.244 E17.47503
G1 X115.199 Y102.324 E17.50119
G1 X115.943 Y102.419 E17.52401
G1 X116.807 Y102.559 E17.55059
G1 X118.307 Y102.880 E17.59720
G1 X119.137 Y103.101 E17.62330
G1 X119.972 Y103.356 E17.64981
G1 X121.440 Y103.887 E17.69723
G1 X122.140 Y104.179 E17.72028
G1 X123.011 Y104.580 E17.74943
G1 X123.760 Y104.961 E17.77496
G1 X124.491 Y105.364 E17.80032
G1 X125.811 Y106.180 E17.84746
G1 X126.546 Y106.689 E17.87460
G1 X127.231 Y107.200 E17.90058
G1 X127.936 Y107.769 E17.92812
G1 X128.531 Y108.285 E17.95202
G1 X129.060 Y108.774 E17.97392
G1 X129.693 Y109.399 E18.00095
G1 X130.279 Y110.022 E18.02695
G1 X130.871 Y110.699 E18.05425
G1 X131.785 Y111.855 E18.09902
G1 X132.297 Y112.573 E18.12581
G1 X132.839 Y113.399 E18.15583
G1 X133.331 Y114.223 E18.18500
G1 X133.587 Y114.735 E18.20238
G1 X133.756 Y115.144 E18.21584
G1 X133.927 Y115.665 E18.23248
G1 X134.073 Y116.283 E18.25180
G1 X134.149 Y116.805 E18.26783
G1 X134.185 Y117.454 E18.28755
G1 X134.164 Y118.032 E18.30514
G1 X134.101 Y118.552 E18.32105
G1 X133.989 Y119.106 E18.33822
G1 X133.834 Y119.635 E18.35495
G1 X133.681 Y120.046 E18.36829
G1 X133.323 Y120.790 E18.39338
G1 X132.526 Y122.087 E18.43964
G1 X131.663 Y123.309 E18.48508
G1 X130.793 Y124.394 E18.52733
G1 X130.240 Y125.020 E18.55271
G1 X129.733 Y125.559 E18.57518
G1 X128.705 Y126.558 E18.61875
G1 X127.626 Y127.487 E18.66200
G1 X126.416 Y128.404 E18.70812
G1 X125.369 Y129.106 E18.74643
G1 X124.025 Y129.897 E18.79382
G1 X122.891 Y130.477 E18.83249
G1 X121.700 Y131.008 E18.87213
G1 X120.382 Y131.507 E18.91494
G1 X119.119 Y131.905 E18.95516
G1 X117.635 Y132.276 E19.00163
G1 X116.270 Y132.532 E19.04382
G1 X114.761 Y132.720 E19.09005
G1 X113.988 Y132.779 E19.11358
G1 X113.189 Y132.813 E19.13790
G1 X112.405 Y132.821 E19.16172
G1 X111.595 Y132.802 E19.18634
G1 X81.821 Y130.967 E20.09264
G1 X81.196 Y130.902 E20.11171
G1 X80.508 Y130.768 E20.13301
G1 X79.984 Y130.619 E20.14958
G1 X79.245 Y130.333 E20.17366
G1 X78.786 Y130.106 E20.18921
G1 X78.344 Y129.846 E20.20478
G1 X77.942 Y129.572 E20.21955
G1 X77.497 Y129.216 E20.23686
G1 X77.143 Y128.887 E20.25155
G1 X76.779 Y128.497 E20.26777
G1 X76.389 Y128.003 E20.28688
G1 X76.088 Y127.552 E20.30336
G1 X75.819 Y127.072 E20.32007
G1 X75.600 Y126.605 E20.33574
G1 X75.333 Y125.866 E20.35962
G1 X75.209 Y125.409 E20.37399
G1 X75.108 Y124.904 E20.38965
G1 X75.047 Y124.447 E20.40366
G1 X75.005 Y123.652 E20.42785
G1 X75.005 Y111.348 E20.80165
G1 X75.032 Y110.714 E20.82093
G1 X75.091 Y110.204 E20.83652
G1 X75.204 Y109.613 E20.85482
G1 X75.432 Y108.830 E20.87959
G1 X75.691 Y108.193 E20.90048
G1 X76.074 Y107.471 E20.92530
G1 X76.480 Y106.874 E20.94726
G1 X77.021 Y106.237 E20.97264
G1 X77.497 Y105.784 E20.99262
G1 X77.898 Y105.462 E21.00825
M201 X1000 Y1000
M204 P1000 T1000
G1 X78.160 Y105.711 F10200.000
M201 X800 Y800
M204 P800 T800
G1 F1800
G1 X78.539 Y105.453 E21.02216
G1 X78.961 Y105.206 E21.03702
G1 X79.394 Y104.992 E21.05173
G1 X79.843 Y104.808 E21.06643
G1 X80.345 Y104.644 E21.08249
G1 X80.747 Y104.543 E21.09510
G1 X81.281 Y104.446 E21.11159
G1 X81.844 Y104.389 E21.12876
G1 X111.869 Y102.546 E22.04269
G1 X113.408 Y102.551 E22.08945
G1 X114.233 Y102.595 E22.11455
G1 X114.970 Y102.659 E22.13704
G1 X115.841 Y102.765 E22.16369
G1 X116.510 Y102.869 E22.18427
G1 X117.303 Y103.019 E22.20878
G1 X118.055 Y103.186 E22.23217
G1 X119.042 Y103.445 E22.26319
G1 X119.698 Y103.643 E22.28402
G1 X120.482 Y103.907 E22.30913
G1 X121.240 Y104.191 E22.33375
G1 X121.995 Y104.506 E22.35859
G1 X122.784 Y104.867 E22.38494
G1 X124.070 Y105.535 E22.42897
G1 X124.816 Y105.971 E22.45522
G1 X125.545 Y106.432 E22.48143
G1 X126.339 Y106.980 E22.51074
G1 X126.855 Y107.362 E22.53026
G1 X127.411 Y107.799 E22.55174
G1 X128.106 Y108.385 E22.57934
G1 X128.739 Y108.961 E22.60537
G1 X129.368 Y109.578 E22.63212
G1 X130.394 Y110.690 E22.67810
G1 X130.956 Y111.364 E22.70475
G1 X131.496 Y112.065 E22.73164
G1 X132.001 Y112.772 E22.75804
G1 X132.535 Y113.587 E22.78762
G1 X133.018 Y114.395 E22.81624
G1 X133.262 Y114.883 E22.83280
G1 X133.422 Y115.270 E22.84554
G1 X133.585 Y115.765 E22.86136
G1 X133.721 Y116.346 E22.87951
G1 X133.794 Y116.845 E22.89482
G1 X133.824 Y117.258 E22.90740
G1 X133.818 Y117.865 E22.92583
G1 X133.756 Y118.451 E22.94376
G1 X133.648 Y118.997 E22.96065
G1 X133.497 Y119.519 E22.97716
G1 X133.352 Y119.908 E22.98979
G1 X133.010 Y120.618 E23.01372
G1 X132.229 Y121.889 E23.05904
G1 X131.838 Y122.463 E23.08016
G1 X131.347 Y123.134 E23.10541
G1 X130.403 Y124.300 E23.15099
G1 X129.477 Y125.310 E23.19262
G1 X128.464 Y126.294 E23.23551
G1 X127.403 Y127.208 E23.27807
G1 X126.208 Y128.114 E23.32363
G1 X125.179 Y128.804 E23.36127
G1 X123.852 Y129.585 E23.40805
G1 X122.736 Y130.156 E23.44614
G1 X121.510 Y130.700 E23.48689
G1 X120.250 Y131.175 E23.52780
