; generated by Slic3r 1.3.0 on 2019-07-14 at 16:20:30

; external perimeters extrusion width = 0.44mm (6.35mm^3/s)
; perimeters extrusion width = 0.56mm (6.20mm^3/s)
; infill extrusion width = 0.50mm (11.88mm^3/s)
; solid infill extrusion width = 0.56mm (5.17mm^3/s)
; top infill extrusion width = 0.56mm (8.27mm^3/s)

M107
M190 S62 ; set bed temperature and wait for it to be reached
M104 S215 ; set temperature
G28 ; home all axes
G1 Z5 F5000 ; lift nozzle

; Filament gcode

M109 S215 ; set temperature and wait for it to be reached
G21 ; set units to millimeters
G90 ; use absolute coordinates
M82 ; use absolute distances for extrusion
G92 E0
G1 Z0.200 F10200.000
G1 E-2.00000 F3000.00000
G92 E0
G1 Z0.800 F10200.000
G1 X87.893 Y93.437 F10200.000
G1 Z0.200 F10200.000
G1 E2.00000 F3000.00000
M201 X800 Y800
M204 P800 T800
G1 F1800
G1 X89.627 Y92.071 E2.06707
G1 X92.500 Y91.358 E2.15700
G1 X132.500 Y91.358 E3.37227
G1 X134.672 Y91.754 E3.43934
G1 X136.563 Y92.893 E3.50642
G1 X137.929 Y94.627 E3.57349
G1 X138.642 Y97.500 E3.66342
G1 X138.642 Y137.500 E4.87869
G1 X138.246 Y139.672 E4.94576
G1 X137.107 Y141.563 E5.01284
G1 X135.373 Y142.929 E5.07991
G1 X132.500 Y143.642 E5.16984
G1 X92.500 Y143.642 E6.38511
G1 X90.328 Y143.246 E6.45218
G1 X88.437 Y142.107 E6.51926
G1 X87.071 Y140.373 E6.58633
G1 X86.358 Y137.500 E6.67626
G1 X86.358 Y97.500 E7.89153
G1 X86.754 Y95.328 E7.95860
G1 X87.862 Y93.488 E8.02385
M201 X1000 Y1000
M204 P1000 T1000
G1 X88.246 Y93.579 F10200.000
M201 X800 Y800
M204 P800 T800
G1 F1800
G1 X89.965 Y92.300 E8.08893
G1 X92.500 Y91.715 E8.16798
G1 X132.500 Y91.715 E9.38325
G1 X134.605 Y92.111 E9.44833
G1 X136.421 Y93.246 E9.51341
G1 X137.700 Y94.965 E9.57849
G1 X138.285 Y97.500 E9.65754
G1 X138.285 Y137.500 E10.87281
G1 X137.889 Y139.605 E10.93789
G1 X136.754 Y141.421 E11.00296
G1 X135.035 Y142.700 E11.06804
G1 X132.500 Y143.285 E11.14709
G1 X92.500 Y143.285 E12.36236
G1 X90.395 Y142.889 E12.42744
G1 X88.579 Y141.754 E12.49252
G1 X87.300 Y140.035 E12.55760
G1 X86.715 Y137.500 E12.63665
G1 X86.715 Y97.500 E13.85192
G1 X87.111 Y95.395 E13.91700
G1 X88.215 Y93.629 E13.98025
M201 X1000 Y1000
M204 P1000 T1000
G1 X88.599 Y93.725 F10200.000
M201 X800 Y800
M204 P800 T800
G1 F1800
G1 X90.300 Y92.538 E14.04327
G1 X92.500 Y92.072 E14.11160
G1 X132.500 Y92.072 E15.32687
G1 X134.536 Y92.468 E15.38989
G1 X136.275 Y93.599 E15.45292
G1 X137.462 Y95.300 E15.51594
G1 X137.928 Y97.500 E15.58427
G1 X137.928 Y137.500 E16.79954
G1 X137.532 Y139.536 E16.86256
G1 X136.401 Y141.275 E16.92558
G1 X134.700 Y142.462 E16.98860
G1 X132.500 Y142.928 E17.05693
G1 X92.500 Y142.928 E18.27220
G1 X90.464 Y142.532 E18.33522
G1 X88.725 Y141.401 E18.39824
G1 X87.538 Y139.700 E18.46126
G1 X87.072 Y137.500 E18.52959
G1 X87.072 Y97.500 E19.74486
G1 X87.468 Y95.464 E19.80788
G1 X88.566 Y93.775 E19.86908
M201 X1000 Y1000
M204 P1000 T1000
G1 X88.951 Y93.877 F10200.000
M201 X800 Y800
M204 P800 T800
G1 F1800
G1 X90.632 Y92.785 E19.92997
G1 X92.500 Y92.429 E19.98775
G1 X132.500 Y92.429 E21.20303
G1 X134.465 Y92.825 E21.26392
G1 X136.123 Y93.951 E21.32481
G1 X137.215 Y95.632 E21.38570
G1 X137.571 Y97.500 E21.44349
G1 X137.571 Y137.500 E22.65876
G1 X137.175 Y139.465 E22.71965
G1 X136.049 Y141.123 E22.78054
G1 X134.368 Y142.215 E22.84144
G1 X132.500 Y142.571 E22.89922
G1 X92.500 Y142.571 E24.11449
G1 X90.535 Y142.175 E24.17539
G1 X88.877 Y141.049 E24.23628
G1 X87.785 Y139.368 E24.29717
G1 X87.429 Y137.500 E24.35496
G1 X87.429 Y97.500 E25.57023
G1 X87.825 Y95.535 E25.63112
G1 X88.917 Y93.927 E25.69019
M201 X1000 Y1000
M204 P1000 T1000
G1 X89.302 Y94.036 F10200.000
M201 X800 Y800
M204 P800 T800
G1 F1800
G1 X90.960 Y93.044 E25.74888
G1 X92.500 Y92.786 E25.79632
G1 X132.500 Y92.786 E27.01159
G1 X134.391 Y93.182 E27.07027
G1 X135.964 Y94.302 E27.12896
G1 X136.956 Y95.960 E27.18765
G1 X137.214 Y97.500 E27.23509
G1 X137.214 Y137.500 E28.45036
G1 X136.818 Y139.391 E28.50905
G1 X135.698 Y140.964 E28.56773
G1 X134.040 Y141.956 E28.62642
G1 X132.500 Y142.214 E28.67386
G1 X92.500 Y142.214 E29.88913
G1 X90.609 Y141.818 E29.94782
G1 X89.036 Y140.698 E30.00650
G1 X88.044 Y139.040 E30.06519
G1 X87.786 Y137.500 E30.11263
G1 X87.786 Y97.500 E31.32790
G1 X88.182 Y95.609 E31.38659
G1 X89.268 Y94.085 E31.44345
M201 X1000 Y1000
M204 P1000 T1000
G1 X89.653 Y94.202 F10200.000
M201 X800 Y800
M204 P800 T800
G1 F1800
G1 X91.284 Y93.316 E31.49985
G1 X92.500 Y93.143 E31.53717
G1 X132.500 Y93.143 E32.75244
G1 X134.314 Y93.538 E32.80883
G1 X135.798 Y94.653 E32.86523
G1 X136.684 Y96.284 E32.92162
G1 X136.857 Y97.500 E32.95894
G1 X136.857 Y137.500 E34.17421
G1 X136.462 Y139.314 E34.23061
G1 X135.347 Y140.798 E34.28700
G1 X133.716 Y141.684 E34.34340
G1 X132.500 Y141.857 E34.38072
G1 X92.500 Y141.857 E35.59599
G1 X90.686 Y141.462 E35.65238
G1 X89.202 Y140.347 E35.70878
G1 X88.316 Y138.716 E35.76517
G1 X88.143 Y137.500 E35.80249
G1 X88.143 Y97.500 E37.01776
G1 X88.538 Y95.686 E37.07416
G1 X89.617 Y94.250 E37.12873
M201 X1000 Y1000
M204 P1000 T1000
G1 E35.12873 F3000.00000
G92 E0
G1 Z0.800 F10200.000
G1 X131.229 Y136.229 F10200.000
G1 Z0.200 F10200.000
G1 E2.00000 F3000.00000
M201 X800 Y800
M204 P800 T800
G1 F1800
G1 X93.771 Y136.229 E3.13803
G1 X93.771 Y98.771 E4.27605
G1 X131.229 Y98.771 E5.41408
G1 X131.229 Y136.169 E6.55028
M201 X1000 Y1000
M204 P1000 T1000
G1 X131.586 Y136.586 F10200.000
M201 X800 Y800
M204 P800 T800
G1 F1800
G1 X93.414 Y136.586 E7.71000
G1 X93.414 Y98.414 E8.86973
G1 X131.586 Y98.414 E10.02945
G1 X131.586 Y136.526 E11.18735
M201 X1000 Y1000
M204 P1000 T1000
G1 X131.943 Y136.943 F10200.000
M201 X800 Y800
M204 P800 T800
G1 F1800
G1 X93.057 Y136.943 E12.36877
G1 X93.057 Y98.057 E13.55019
G1 X131.943 Y98.057 E14.73161
G1 X131.943 Y136.883 E15.91121
M201 X1000 Y1000
M204 P1000 T1000
G1 X132.300 Y137.300 F10200.000
M201 X800 Y800
M204 P800 T800
G1 F1800
G1 X92.700 Y137.300 E17.11433
G1 X92.700 Y97.700 E18.31745
G1 X132.300 Y97.700 E19.52056
G1 X132.300 Y137.240 E20.72186
M201 X1000 Y1000
M204 P1000 T1000
G1 X131.914 Y137.196 F10200.000
G1 X130.733 Y136.011 F10200.000
M201 X800 Y800
M204 P800 T800
G1 F1800
G1 X131.011 Y135.733 E20.73384
G1 X131.011 Y135.226 E20.74929
G1 X130.226 Y136.011 E20.78313
G1 X129.719 Y136.011 E20.79858
G1 X131.011 Y134.719 E20.85427
G1 X131.011 Y134.212 E20.86973
G1 X129.212 Y136.011 E20.94727
G1 X128.705 Y136.011 E20.96272
G1 X131.011 Y133.705 E21.06212
G1 X131.011 Y133.199 E21.07757
G1 X128.199 Y136.011 E21.19883
G1 X127.692 Y136.011 E21.21428
G1 X131.011 Y132.692 E21.35738
G1 X131.011 Y132.185 E21.37284
G1 X127.185 Y136.011 E21.53780
G1 X126.678 Y136.011 E21.55325
G1 X131.011 Y131.678 E21.74006
G1 X131.011 Y131.171 E21.75551
G1 X126.171 Y136.011 E21.96418
G1 X125.665 Y136.011 E21.97963
G1 X131.011 Y130.665 E22.21015
G1 X131.011 Y130.158 E22.22561
G1 X125.158 Y136.011 E22.47798
G1 X124.651 Y136.011 E22.49343
G1 X131.011 Y129.651 E22.76766
G1 X131.011 Y129.144 E22.78311
G1 X124.144 Y136.011 E23.07920
G1 X123.637 Y136.011 E23.09465
G1 X131.011 Y128.637 E23.41259
G1 X131.011 Y128.131 E23.42804
G1 X123.131 Y136.011 E23.76783
G1 X122.624 Y136.011 E23.78328
G1 X131.011 Y127.624 E24.14492
G1 X131.011 Y127.117 E24.16038
G1 X122.117 Y136.011 E24.54387
G1 X121.610 Y136.011 E24.55933
G1 X131.011 Y126.610 E24.96468
G1 X131.011 Y126.103 E24.98013
G1 X121.103 Y136.011 E25.40733
G1 X120.597 Y136.011 E25.42279
G1 X131.011 Y125.597 E25.87185
G1 X131.011 Y125.090 E25.88730
G1 X120.090 Y136.011 E26.35821
G1 X119.583 Y136.011 E26.37366
G1 X131.011 Y124.583 E26.86643
G1 X131.011 Y124.076 E26.88188
G1 X119.076 Y136.011 E27.39650
G1 X118.569 Y136.011 E27.41196
G1 X131.011 Y123.569 E27.94843
G1 X131.011 Y123.063 E27.96388
G1 X118.063 Y136.011 E28.52221
G1 X117.556 Y136.011 E28.53766
G1 X131.011 Y122.556 E29.11784
G1 X131.011 Y122.049 E29.13330
G1 X117.049 Y136.011 E29.73533
G1 X116.542 Y136.011 E29.75078
G1 X131.011 Y121.542 E30.37467
G1 X131.011 Y121.035 E30.39012
G1 X116.035 Y136.011 E31.03587
G1 X115.529 Y136.011 E31.05132
G1 X131.011 Y120.529 E31.71892
G1 X131.011 Y120.022 E31.73437
G1 X115.022 Y136.011 E32.42382
G1 X114.515 Y136.011 E32.43927
G1 X131.011 Y119.515 E33.15058
G1 X131.011 Y119.008 E33.16603
G1 X114.008 Y136.011 E33.89919
G1 X113.501 Y136.011 E33.91464
G1 X131.011 Y118.501 E34.66965
G1 X131.011 Y117.995 E34.68510
G1 X112.995 Y136.011 E35.46197
G1 X112.488 Y136.011 E35.47742
G1 X131.011 Y117.488 E36.27614
G1 X131.011 Y116.981 E36.29159
G1 X111.981 Y136.011 E37.11217
G1 X111.474 Y136.011 E37.12762
G1 X131.011 Y116.474 E37.97005
G1 X131.011 Y115.967 E37.98550
G1 X110.967 Y136.011 E38.84978
G1 X110.461 Y136.011 E38.86523
G1 X131.011 Y115.461 E39.75137
G1 X131.011 Y114.954 E39.76682
G1 X109.954 Y136.011 E40.67481
G1 X109.447 Y136.011 E40.69026
G1 X131.011 Y114.447 E41.62010
G1 X131.011 Y113.940 E41.63555
G1 X108.940 Y136.011 E42.58725
G1 X108.433 Y136.011 E42.60270
G1 X131.011 Y113.433 E43.57625
G1 X131.011 Y112.927 E43.59170
G1 X107.927 Y136.011 E44.58711
G1 X107.420 Y136.011 E44.60256
G1 X131.011 Y112.420 E45.61982
G1 X131.011 Y111.913 E45.63527
G1 X106.913 Y136.011 E46.67438
G1 X106.406 Y136.011 E46.68983
G1 X131.011 Y111.406 E47.75080
G1 X131.011 Y110.899 E47.76625
G1 X105.899 Y136.011 E48.84907
G1 X105.393 Y136.011 E48.86452
G1 X131.011 Y110.393 E49.96919
G1 X131.011 Y109.886 E49.98465
G1 X104.886 Y136.011 E51.11117
G1 X104.379 Y136.011 E51.12663
G1 X131.011 Y109.379 E52.27500
G1 X131.011 Y108.872 E52.29046
G1 X103.872 Y136.011 E53.46069
G1 X103.365 Y136.011 E53.47614
G1 X131.011 Y108.365 E54.66823
G1 X131.011 Y107.859 E54.68368
G1 X102.859 Y136.011 E55.89763
G1 X102.352 Y136.011 E55.91308
G1 X131.011 Y107.352 E57.14887
G1 X131.011 Y106.845 E57.16433
G1 X101.845 Y136.011 E58.42197
G1 X101.338 Y136.011 E58.43743
G1 X131.011 Y106.338 E59.71693
G1 X131.011 Y105.831 E59.73238
G1 X100.831 Y136.011 E61.03374
G1 X100.324 Y136.011 E61.04919
G1 X131.011 Y105.325 E62.37240
G1 X131.011 Y104.818 E62.38785
G1 X99.818 Y136.011 E63.73292
G1 X99.311 Y136.011 E63.74837
G1 X131.011 Y104.311 E65.11529
G1 X131.011 Y103.804 E65.13074
G1 X98.804 Y136.011 E66.51951
G1 X98.297 Y136.011 E66.53496
G1 X131.011 Y103.297 E67.94559
G1 X131.011 Y102.790 E67.96104
G1 X97.790 Y136.011 E69.39352
G1 X97.284 Y136.011 E69.40897
G1 X131.011 Y102.284 E70.86331
G1 X131.011 Y101.777 E70.87876
G1 X96.777 Y136.011 E72.35495
G1 X96.270 Y136.011 E72.37040
G1 X131.011 Y101.270 E73.86844
G1 X131.011 Y100.763 E73.88389
G1 X95.763 Y136.011 E75.40379
G1 X95.256 Y136.011 E75.41924
G1 X131.011 Y100.256 E76.96099
G1 X131.011 Y99.750 E76.97644
G1 X94.750 Y136.011 E78.54004
G1 X94.243 Y136.011 E78.55549
G1 X131.011 Y99.243 E80.14095
G1 X131.011 Y98.989 E80.14868
G1 X130.757 Y98.989 E80.15640
G1 X93.989 Y135.757 E81.74186
G1 X93.989 Y135.250 E81.75731
G1 X130.250 Y98.989 E83.32092
G1 X129.744 Y98.989 E83.33637
G1 X93.989 Y134.744 E84.87812
G1 X93.989 Y134.237 E84.89357
G1 X129.237 Y98.989 E86.41347
G1 X128.730 Y98.989 E86.42892
G1 X93.989 Y133.730 E87.92697
G1 X93.989 Y133.223 E87.94242
G1 X128.223 Y98.989 E89.41861
G1 X127.716 Y98.989 E89.43406
G1 X93.989 Y132.716 E90.88840
G1 X93.989 Y132.210 E90.90385
G1 X127.210 Y98.989 E92.33633
G1 X126.703 Y98.989 E92.35178
G1 X93.989 Y131.703 E93.76241
G1 X93.989 Y131.196 E93.77786
G1 X126.196 Y98.989 E95.16664
G1 X125.689 Y98.989 E95.18209
G1 X93.989 Y130.689 E96.54901
G1 X93.989 Y130.182 E96.56446
G1 X125.182 Y98.989 E97.90953
G1 X124.676 Y98.989 E97.92498
G1 X93.989 Y129.676 E99.24819
G1 X93.989 Y129.169 E99.26365
G1 X124.169 Y98.989 E100.56501
G1 X123.662 Y98.989 E100.58046
G1 X93.989 Y128.662 E101.85996
G1 X93.989 Y128.155 E101.87542
G1 X123.155 Y98.989 E103.13307
G1 X122.648 Y98.989 E103.14852
G1 X93.989 Y127.648 E104.38432
G1 X93.989 Y127.142 E104.39977
G1 X122.142 Y98.989 E105.61371
G1 X121.635 Y98.989 E105.62917
G1 X93.989 Y126.635 E106.82126
G1 X93.989 Y126.128 E106.83671
G1 X121.128 Y98.989 E108.00695
G1 X120.621 Y98.989 E108.02240
G1 X93.989 Y125.621 E109.17078
G1 X93.989 Y125.114 E109.18623
G1 X120.114 Y98.989 E110.31276
G1 X119.608 Y98.989 E110.32822
G1 X93.989 Y124.608 E111.43289
G1 X93.989 Y124.101 E111.44834
G1 X119.101 Y98.989 E112.53116
G1 X118.594 Y98.989 E112.54662
G1 X93.989 Y123.594 E113.60758
G1 X93.989 Y123.087 E113.62304
G1 X118.087 Y98.989 E114.66215
G1 X117.580 Y98.989 E114.67760
G1 X93.989 Y122.580 E115.69486
G1 X93.989 Y122.074 E115.71032
G1 X117.074 Y98.989 E116.70572
G1 X116.567 Y98.989 E116.72117
G1 X93.989 Y121.567 E117.69473
G1 X93.989 Y121.060 E117.71018
G1 X116.060 Y98.989 E118.66188
G1 X115.553 Y98.989 E118.67733
G1 X93.989 Y120.553 E119.60718
G1 X93.989 Y120.046 E119.62263
G1 X115.046 Y98.989 E120.53062
G1 X114.540 Y98.989 E120.54607
G1 X93.989 Y119.540 E121.43221
G1 X93.989 Y119.033 E121.44766
G1 X114.033 Y98.989 E122.31194
G1 X113.526 Y98.989 E122.32740
G1 X93.989 Y118.526 E123.16983
G1 X93.989 Y118.019 E123.18528
G1 X113.019 Y98.989 E124.00585
G1 X112.512 Y98.989 E124.02131
G1 X93.989 Y117.512 E124.82003
G1 X93.989 Y117.005 E124.83548
G1 X112.005 Y98.989 E125.61235
G1 X111.499 Y98.989 E125.62780
G1 X93.989 Y116.499 E126.38282
G1 X93.989 Y115.992 E126.39827
G1 X110.992 Y98.989 E127.13143
G1 X110.485 Y98.989 E127.14688
G1 X93.989 Y115.485 E127.85819
G1 X93.989 Y114.978 E127.87364
G1 X109.978 Y98.989 E128.56310
G1 X109.471 Y98.989 E128.57855
G1 X93.989 Y114.471 E129.24615
G1 X93.989 Y113.965 E129.26160
G1 X108.965 Y98.989 E129.90735
G1 X108.458 Y98.989 E129.92280
G1 X93.989 Y113.458 E130.54669
G1 X93.989 Y112.951 E130.56214
G1 X107.951 Y98.989 E131.16418
G1 X107.444 Y98.989 E131.17963
G1 X93.989 Y112.444 E131.75982
G1 X93.989 Y111.937 E131.77527
G1 X106.937 Y98.989 E132.33360
G1 X106.431 Y98.989 E132.34905
G1 X93.989 Y111.431 E132.88553
G1 X93.989 Y110.924 E132.90098
G1 X105.924 Y98.989 E133.41560
G1 X105.417 Y98.989 E133.43106
G1 X93.989 Y110.417 E133.92383
G1 X93.989 Y109.910 E133.93928
G1 X104.910 Y98.989 E134.41019
G1 X104.403 Y98.989 E134.42565
G1 X93.989 Y109.403 E134.87471
G1 X93.989 Y108.897 E134.89016
G1 X103.897 Y98.989 E135.31737
G1 X103.390 Y98.989 E135.33282
G1 X93.989 Y108.390 E135.73818
G1 X93.989 Y107.883 E135.75363
G1 X102.883 Y98.989 E136.13713
G1 X102.376 Y98.989 E136.15258
G1 X93.989 Y107.376 E136.51423
G1 X93.989 Y106.869 E136.52968
G1 X101.869 Y98.989 E136.86947
G1 X101.363 Y98.989 E136.88493
G1 X93.989 Y106.363 E137.20286
G1 X93.989 Y105.856 E137.21832
G1 X100.856 Y98.989 E137.51440
G1 X100.349 Y98.989 E137.52985
G1 X93.989 Y105.349 E137.80409
G1 X93.989 Y104.842 E137.81954
G1 X99.842 Y98.989 E138.07192
G1 X99.335 Y98.989 E138.08737
G1 X93.989 Y104.335 E138.31789
G1 X93.989 Y103.829 E138.33334
G1 X98.829 Y98.989 E138.54201
G1 X98.322 Y98.989 E138.55747
G1 X93.989 Y103.322 E138.74428
G1 X93.989 Y102.815 E138.75974
G1 X97.815 Y98.989 E138.92470
G1 X97.308 Y98.989 E138.94015
G1 X93.989 Y102.308 E139.08326
G1 X93.989 Y101.801 E139.09871
G1 X96.801 Y98.989 E139.21997
G1 X96.295 Y98.989 E139.23542
G1 X93.989 Y101.295 E139.33482
G1 X93.989 Y100.788 E139.35027
G1 X95.788 Y98.989 E139.42782
G1 X95.281 Y98.989 E139.44327
G1 X93.989 Y100.281 E139.49897
G1 X93.989 Y99.774 E139.51442
G1 X94.774 Y98.989 E139.54826
G1 X94.267 Y98.989 E139.56371
G1 X93.990 Y99.267 E139.57569
M201 X1000 Y1000
M204 P1000 T1000
M104 S213 ; set temperature
G1 Z0.400 F10200.000
G1 E137.57569 F3000.00000
G92 E0
G1 Z1.000 F10200.000
G1 X87.893 Y93.437 F10200.000
G1 Z0.400 F10200.000
G1 E2.00000 F3000.00000
G1 F6000
G1 X89.627 Y92.071 E2.06707
G1 X92.500 Y91.358 E2.15700
G1 X132.500 Y91.358 E3.37227
G1 X134.672 Y91.754 E3.43934
G1 X136.563 Y92.893 E3.50642
G1 X137.929 Y94.627 E3.57349
G1 X138.642 Y97.500 E3.66342
G1 X138.642 Y137.500 E4.87869
G1 X138.246 Y139.672 E4.94576
G1 X137.107 Y141.563 E5.01284
G1 X135.373 Y142.929 E5.07991
G1 X132.500 Y143.642 E5.16984
G1 X92.500 Y143.642 E6.38511
G1 X90.328 Y143.246 E6.45218
G1 X88.437 Y142.107 E6.51926
G1 X87.071 Y140.373 E6.58633
G1 X86.358 Y137.500 E6.67626
G1 X86.358 Y97.500 E7.89153
G1 X86.754 Y95.328 E7.95860
G1 X87.862 Y93.488 E8.02385
G1 X88.246 Y93.579 F10200.000
G1 F6000
G1 X89.965 Y92.300 E8.08893
G1 X92.500 Y91.715 E8.16798
G1 X132.500 Y91.715 E9.38325
